!!!OTL: 170. Seefahrt nach Afrika, Gefangenschaft und Befreiung.
!!!ARE: Europa, Mitteleuropa, Deutschland, Hessen, Darmstadt
!!!SCT: B0170
!!!TXL: @@DE
!!!YEM: Copyright 1995, estate of Helmut Schaffrath.
**kern	**text
*ICvox	*
*Ivox	*
*M4/4	*
*met(c)	*
*clefG2	*
*k[]	*
*C:	*
!LO:TX:a:t=1.	!
!LO:TX:a:t=Mäßig langſam. 	!
{8g	Jch
8g	leb-
8g	-te
=1	=1
4.e	einſt
8g	im
8cc	deut-
8b	-ſchen
8a	Va-
8g	-ter-
=2	=2
8gL	-lan-
8fJ	.
4f	-de
8r}	.
!LO:TX:a:t=1.	!
{8f	der
8f	gold-
8e	-nen
=3	=3
4.d	Frei-
8g	-heit
8g	acht-
8g	-ʒehn
8a	Jahr
8g	da-
=4	=4
2e	-hin
8r}	.
{8cc	da
8cc	ʒog
8cc	die
=5	=5
4.a	Neu-
8b	-be-
8dd	-gier-
8cc	-de
8b	mich
8a	ʒum
=6	=6
8aL	Stran-
8gJ	.
4g	-de,
8r}	.
{8cc	und
8g	ich
8e	be-
=7	=7
!LO:TX:a:t=2.	!
4.d	-ſtieg
8cc	ein
8b	Schiff
8g	mit
8a	fro-
8g	-hem
=8	=8
2e	Sinn.
8r}	.
==	==
!!!AGN: Ballade, Romanze
!!!GTL: Balladen und Romanzen
!!!ONB: ESAC (Essen Associative Code) Database: BOEHME
!!!AMT: simple quadruple
!!!AIN: vox
!!!EED: Helmut Schaffrath
!!!EEV: 1.0
!!Aus dem Heſſendarmſtädtiſchen (1892), dem Elſaß 1889 und vom Rhein 1894.
!!@@COMMENT:"a) Mel. und Text aus Eberſtadt bei Butʒbach (Heſſen) 1892. b) Mit einʒelnen Worten
!!anders und gleicher Mel. aus Biſchweiler im Elſaß (1889, durch den Seminariſten Herrn Hichel.
!!c) Wieder mit einigen Silben abweichend bei Becker, Rhein. Volksliederborn Nr. 114. - Das
!!Lied iſt vermuthlich neuern Urſprungs und durch Flugblätter auf Jahrmärkten verkauft worden und
!!ſo ins Volk gekommen.
!!Varianten: 1, 1 Einſt lebte ich im deutſchen Vaterlande der goldnen Ʒeiten 18
!!Jahr dahin. 2. 3 Die Wellen ſchlugen, das Schiff fing an ʒu ſchwanken. 5, 1 So lebt ich
!!fern in dem Aegypterlande. 5, 2 achtʒehn (ʒehn, ein) Jahr dahin. 6. 4 So lebt denn eure
!!Jahre froh dahin."
!!@@END:
!!!URL-scan: https://archive.org/details/BoehmeVtLieder1895/page/n169/mode/2up
!!!ENC: Anna Maria Matuszewska
!!!EEV: 2024/19/06
*-	*-
